school/img/country/FJ.svg

<svg width="13" height="12" viewBox="0 0 13 12" fill="none" xmlns="http://www.w3.org/2000/svg">
<rect width="13" height="12" rx="2" fill="white"/>
<mask id="mask0" mask-type="alpha" maskUnits="userSpaceOnUse" x="0" y="0" width="13" height="12">
<rect width="13" height="12" rx="2" fill="white"/>
</mask>
<g mask="url(#mask0)">
<rect width="13" height="12" fill="#79CFF6"/>
<rect width="5.57143" height="5.6" fill="url(#paint0_linear)"/>
<path fill-rule="evenodd" clip-rule="evenodd" d="M8.04761 6.00001C8.04761 4.80001 8.04761 3.20001 8.04761 3.20001H11.1428C11.1428 3.20001 11.1428 4.80001 11.1428 6.00001C11.1428 8.00001 9.59523 8.80001 9.59523 8.80001C9.59523 8.80001 8.04761 8.00001 8.04761 6.00001Z" fill="white"/>
<mask id="mask1" mask-type="alpha" maskUnits="userSpaceOnUse" x="8" y="3" width="4" height="6">
<path fill-rule="evenodd" clip-rule="evenodd" d="M8.04761 6.00001C8.04761 4.80001 8.04761 3.20001 8.04761 3.20001H11.1428C11.1428 3.20001 11.1428 4.80001 11.1428 6.00001C11.1428 8.00001 9.59523 8.80001 9.59523 8.80001C9.59523 8.80001 8.04761 8.00001 8.04761 6.00001Z" fill="white"/>
</mask>
<g mask="url(#mask1)">
<path fill-rule="evenodd" clip-rule="evenodd" d="M8.97623 4.80002C8.97623 5.02094 8.83765 5.20002 8.6667 5.20002C8.49576 5.20002 8.35718 5.02094 8.35718 4.80002C8.35718 4.57911 8.49576 4.40002 8.6667 4.40002C8.83765 4.40002 8.97623 4.57911 8.97623 4.80002ZM10.8334 4.80002C10.8334 5.02094 10.6948 5.20002 10.5238 5.20002C10.3529 5.20002 10.2143 5.02094 10.2143 4.80002C10.2143 4.57911 10.3529 4.40002 10.5238 4.40002C10.6948 4.40002 10.8334 4.57911 10.8334 4.80002Z" fill="#2A915C"/>
<path fill-rule="evenodd" clip-rule="evenodd" d="M8.04761 3.20001H11.1428V4.00001H9.90475V5.60001H11.1428V6.40001H9.90475V8.80001H9.2857V6.40001H8.04761V5.60001H9.2857V4.00001H8.04761V3.20001Z" fill="#EB1D43"/>
</g>
<path d="M0 -0.333333H-0.75L-0.247423 0.223368L1.83333 2.5282V3.05406L-0.226093 4.95507L-0.333333 5.05406V5.2V5.6V6.29771L0.209446 5.85931L2.59399 3.93333H2.96491L5.00214 5.81385C5.08536 5.89067 5.19447 5.93333 5.30773 5.93333C5.69811 5.93333 5.90374 5.47067 5.64214 5.1809L3.7381 3.07179V2.54594L5.69028 0.743925C5.827 0.617721 5.90476 0.440121 5.90476 0.254056V0V-0.697712L5.36198 -0.259314L2.97744 1.66667H2.60652L0.535617 -0.244934L0.439852 -0.333333H0.309524H0Z" fill="#DB1E36" stroke="white" stroke-width="0.666667"/>
<path fill-rule="evenodd" clip-rule="evenodd" d="M0 2V3.6H2.16667V5.38095C2.16667 5.72284 2.44382 6 2.78571 6V6C3.1276 6 3.40476 5.72284 3.40476 5.38095V3.6H5.21429C5.58247 3.6 5.88095 3.30152 5.88095 2.93333V2.66667C5.88095 2.29848 5.58248 2 5.21429 2H3.40476V0H2.16667V2H0Z" fill="url(#paint1_linear)"/>
<path fill-rule="evenodd" clip-rule="evenodd" d="M0 2.4H2.47619V2V0H3.09524V2V2.4H5.57143V3.2H3.09524V3.6V5.6H2.47619V3.6V3.2H0V2.4Z" fill="#DB1E36"/>
</g>
<defs>
<linearGradient id="paint0_linear" x1="0" y1="0" x2="0" y2="5.6" gradientUnits="userSpaceOnUse">
<stop stop-color="#042C90"/>
<stop offset="1" stop-color="#00247E"/>
</linearGradient>
<linearGradient id="paint1_linear" x1="0" y1="0" x2="0" y2="6" gradientUnits="userSpaceOnUse">
<stop stop-color="white"/>
<stop offset="1" stop-color="#F0F0F0"/>
</linearGradient>
</defs>
</svg>

<svg width="13" height="12" fill="none" xmlns="http://www.w3.org/2000/svg"><rect width="13" height="12" rx="2" fill="#fff"/><mask id="a" maskUnits="userSpaceOnUse" x="0" y="0" width="13" height="12"><rect width="13" height="12" rx="2" fill="#fff"/></mask><g mask="url(#a)"><path fill="#79CFF6" d="M0 0h13v12H0z"/><path fill="url(#paint0_linear)" d="M0 0h5.571v5.6H0z"/><path fill-rule="evenodd" clip-rule="evenodd" d="M8.048 6V3.2h3.095V6c0 2-1.548 2.8-1.548 2.8S8.048 8 8.048 6z" fill="#fff"/><mask id="b" maskUnits="userSpaceOnUse" x="8" y="3" width="4" height="6"><path fill-rule="evenodd" clip-rule="evenodd" d="M8.048 6V3.2h3.095V6c0 2-1.548 2.8-1.548 2.8S8.048 8 8.048 6z" fill="#fff"/></mask><g mask="url(#b)" fill-rule="evenodd" clip-rule="evenodd"><path d="M8.976 4.8c0 .22-.138.4-.31.4-.17 0-.309-.18-.309-.4 0-.22.139-.4.31-.4.17 0 .31.18.31.4zm1.857 0c0 .22-.138.4-.31.4-.17 0-.309-.18-.309-.4 0-.22.139-.4.31-.4.17 0 .31.18.31.4z" fill="#2A915C"/><path d="M8.048 3.2h3.095V4H9.905v1.6h1.238v.8H9.905v2.4h-.62V6.4H8.049v-.8h1.238V4H8.048v-.8z" fill="#EB1D43"/></g><path d="M0-.333h-.75l.503.556 2.08 2.305v.526l-2.06 1.901-.106.1v1.242l.542-.439 2.385-1.926h.37l2.038 1.88a.45.45 0 00.64-.632L3.738 3.07v-.525L5.69.744a.667.667 0 00.215-.49v-.952l-.543.439-2.385 1.926h-.37L.536-.245.44-.333H0z" fill="#DB1E36" stroke="#fff" stroke-width=".667"/><path fill-rule="evenodd" clip-rule="evenodd" d="M0 2v1.6h2.167v1.781a.62.62 0 001.238 0V3.6h1.81a.667.667 0 00.666-.667v-.266A.667.667 0 005.214 2h-1.81V0H2.168v2H0z" fill="url(#paint1_linear)"/><path fill-rule="evenodd" clip-rule="evenodd" d="M0 2.4h2.476V0h.62v2.4H5.57v.8H3.095v2.4h-.619V3.2H0v-.8z" fill="#DB1E36"/></g><defs><linearGradient id="paint0_linear" x1="0" y1="0" x2="0" y2="5.6" gradientUnits="userSpaceOnUse"><stop stop-color="#042C90"/><stop offset="1" stop-color="#00247E"/></linearGradient><linearGradient id="paint1_linear" x1="0" y1="0" x2="0" y2="6" gradientUnits="userSpaceOnUse"><stop stop-color="#fff"/><stop offset="1" stop-color="#F0F0F0"/></linearGradient></defs></svg>
